packages/ui-solid/icons/gallery_24.svg

<svg width="24" height="24" viewBox="0 0 24 24" fill="none" xmlns="http://www.w3.org/2000/svg">
<path fill-rule="evenodd" clip-rule="evenodd" d="M13.3812 1.59824H16.1278C17.0334 1.59823 17.7668 1.59822 18.3616 1.64602C18.9749 1.6953 19.5184 1.79969 20.0239 2.05227C20.8579 2.46901 21.5341 3.14523 21.9508 3.97925C22.2034 4.48475 22.3078 5.02822 22.3571 5.64149C22.4049 6.23631 22.4049 6.96968 22.4049 7.87529V17.0928C22.4049 19.4706 20.4773 21.3982 18.0995 21.3982H10.9231C8.81392 21.3982 7.10414 19.6885 7.10414 17.5793V7.87529C7.10413 6.96968 7.10412 6.23631 7.15192 5.64149C7.2012 5.02822 7.30559 4.48475 7.55817 3.97925C7.97491 3.14523 8.65112 2.46901 9.48515 2.05227C9.99065 1.79969 10.5341 1.6953 11.1474 1.64602C11.7422 1.59822 12.4756 1.59823 13.3812 1.59824ZM11.2916 3.44024C10.7876 3.48073 10.5029 3.55591 10.2897 3.66245C9.80437 3.90496 9.41086 4.29847 9.16835 4.78381C9.06181 4.99704 8.98663 5.28171 8.94613 5.78568C8.90481 6.29988 8.90413 6.96078 8.90413 7.91293V15.448L9.13738 15.2211C9.18497 15.1748 9.22688 15.134 9.26681 15.0982C10.2555 14.2117 11.7531 14.2117 12.7418 15.0982C12.7817 15.134 12.8236 15.1748 12.8712 15.2211L12.882 15.2315C12.9466 15.2945 12.9598 15.307 12.9686 15.3149C13.2735 15.5883 13.7354 15.5883 14.0403 15.3149C14.0491 15.307 14.0622 15.2945 14.1269 15.2315L15.0129 14.3696C15.3203 14.0704 15.588 13.81 15.8265 13.6122C16.0792 13.4026 16.3555 13.2141 16.6949 13.103C17.221 12.9308 17.7883 12.9308 18.3145 13.103C18.6538 13.2141 18.9301 13.4026 19.1828 13.6122C19.4213 13.81 19.6889 14.0704 19.9964 14.3695L20.6049 14.9615V7.91293C20.6049 6.96078 20.6042 6.29988 20.5629 5.78568C20.5224 5.28171 20.4472 4.99704 20.3407 4.78381C20.0981 4.29847 19.7046 3.90496 19.2193 3.66245C19.0061 3.55591 18.7214 3.48073 18.2174 3.44024C17.7032 3.39891 17.0423 3.39824 16.0902 3.39824H13.4188C12.4667 3.39824 11.8058 3.39891 11.2916 3.44024ZM20.5798 17.4485L18.765 15.6828C18.4269 15.3539 18.2106 15.1443 18.0337 14.9977C17.8649 14.8577 17.79 14.8253 17.7544 14.8137C17.5921 14.7606 17.4172 14.7606 17.2549 14.8137C17.2193 14.8253 17.1444 14.8577 16.9756 14.9977C16.7987 15.1443 16.5824 15.3539 16.2443 15.6828L15.3714 16.5321C15.3238 16.5785 15.2819 16.6193 15.2419 16.6551C14.2532 17.5415 12.7557 17.5415 11.7669 16.6551C11.727 16.6193 11.6851 16.5785 11.6376 16.5322L11.6268 16.5217C11.5621 16.4588 11.5489 16.4462 11.5402 16.4384C11.2352 16.165 10.7734 16.165 10.4684 16.4384C10.4597 16.4462 10.4465 16.4588 10.3818 16.5217L8.93446 17.9299C9.10041 18.8778 9.9276 19.5982 10.9231 19.5982H18.0995C19.3624 19.5982 20.4071 18.6638 20.5798 17.4485ZM1.60384 6.45783C1.60384 4.57999 3.12613 3.0577 5.00397 3.0577C5.50103 3.0577 5.90397 3.46064 5.90397 3.9577C5.90397 4.45475 5.50103 4.8577 5.00397 4.8577C4.12024 4.8577 3.40384 5.5741 3.40384 6.45783V17.5116C3.40384 18.3953 4.12024 19.1118 5.00397 19.1118C5.50103 19.1118 5.90397 19.5147 5.90397 20.0118C5.90397 20.5088 5.50103 20.9118 5.00397 20.9118C3.12613 20.9118 1.60384 19.3895 1.60384 17.5116V6.45783Z" fill="#007AFF"/>
<ellipse cx="17.0047" cy="7.0007" rx="1.50052" ry="1.50067" fill="#007AFF"/>
</svg>

<svg xmlns="http://www.w3.org/2000/svg" width="24" height="24" fill="none"><path fill="currentColor" fill-rule="evenodd" d="M13.381 1.598h2.747c.905 0 1.639 0 2.234.048.613.05 1.156.154 1.662.406A4.3 4.3 0 0 1 21.95 3.98c.252.506.357 1.05.406 1.662.048.595.048 1.329.048 2.234v9.218a4.305 4.305 0 0 1-4.306 4.305h-7.176a3.82 3.82 0 0 1-3.819-3.819V7.875c0-.905 0-1.639.048-2.234.05-.613.154-1.156.406-1.662a4.3 4.3 0 0 1 1.927-1.927c.506-.252 1.05-.357 1.662-.406.595-.048 1.329-.048 2.234-.048M11.29 3.44c-.503.04-.788.116-1.001.222a2.5 2.5 0 0 0-1.122 1.122c-.106.213-.181.498-.222 1.002-.041.514-.042 1.175-.042 2.127v7.535l.233-.227q.071-.069.13-.123a2.603 2.603 0 0 1 3.475 0q.059.054.13.123l.01.01.087.084a.803.803 0 0 0 1.071 0c.01-.008.022-.02.087-.083l.886-.862c.307-.3.575-.56.813-.758.253-.21.53-.398.869-.509a2.6 2.6 0 0 1 1.62 0c.339.111.615.3.868.51.238.197.506.457.813.757l.609.591V7.913c0-.952 0-1.613-.042-2.127-.04-.504-.116-.789-.222-1.002a2.5 2.5 0 0 0-1.122-1.122c-.213-.106-.498-.181-1.002-.222-.514-.041-1.175-.042-2.127-.042H13.42c-.952 0-1.613 0-2.127.042m9.287 14.01-1.815-1.766a14 14 0 0 0-.731-.685c-.17-.14-.244-.173-.28-.184a.8.8 0 0 0-.5 0c-.035.011-.11.044-.278.184-.177.146-.394.356-.732.685l-.873.85q-.07.068-.13.122a2.603 2.603 0 0 1-3.603-.123l-.011-.01-.087-.084a.803.803 0 0 0-1.072 0l-.086.084-1.448 1.408a2.02 2.02 0 0 0 1.99 1.668H18.1a2.506 2.506 0 0 0 2.48-2.15M1.604 6.458a3.4 3.4 0 0 1 3.4-3.4.9.9 0 1 1 0 1.8 1.6 1.6 0 0 0-1.6 1.6v11.054a1.6 1.6 0 0 0 1.6 1.6.9.9 0 1 1 0 1.8 3.4 3.4 0 0 1-3.4-3.4z" clip-rule="evenodd"/><circle cx="17.005" cy="7.001" r="1.501" fill="currentColor"/></svg>
